assets/img/SVG/Twitter_Grey.svg

<?xml version="1.0" encoding="UTF-8" standalone="no"?>
<svg width="24px" height="19px" viewBox="0 0 24 19" version="1.1" xmlns="http://www.w3.org/2000/svg" xmlns:xlink="http://www.w3.org/1999/xlink">
    <!-- Generator: Sketch 3.8.3 (29802) - http://www.bohemiancoding.com/sketch -->
    <title>Twitter Copy 2</title>
    <desc>Created with Sketch.</desc>
    <defs>
        <polygon id="path-1" points="23.9465343 0 0 0 0 18.92993 23.9465343 18.92993"></polygon>
    </defs>
    <g id="Welcome" stroke="none" stroke-width="1" fill="none" fill-rule="evenodd">
        <g id="Upcoming-Events-Desktop-HD" transform="translate(-299.000000, -1148.000000)">
            <g id="Twitter-Hover" transform="translate(298.000000, 1144.000000)">
                <g id="Page-1" transform="translate(1.000000, 4.000000)">
                    <mask id="mask-2" fill="white">
                        <use xlink:href="#path-1"></use>
                    </mask>
                    <g id="Clip-2"></g>
                    <path d="M23.9465343,2.2408583 C23.065454,2.6209435 22.1186803,2.87791211 21.1247825,2.99336054 C22.1391766,2.40197489 22.9182131,1.46535157 23.2849577,0.349463677 C22.3357314,0.897140807 21.2843737,1.29477758 20.1652204,1.50914529 C19.2690745,0.580360538 17.9922569,-3.40807175e-05 16.579235,-3.40807175e-05 C13.8658336,-3.40807175e-05 11.6661547,2.13972377 11.6661547,4.77876413 C11.6661547,5.15339641 11.7096,5.51806009 11.7933372,5.86781345 C7.71027153,5.66852646 4.09021314,3.7659704 1.66708905,0.874732735 C1.24419854,1.58054439 1.00192117,2.40146368 1.00192117,3.27725291 C1.00192117,4.93519462 1.86924964,6.39793901 3.18749781,7.25498386 C2.38218394,7.23019013 1.6246073,7.01514081 0.962242336,6.65720807 C0.961891971,6.67714529 0.96180438,6.69716771 0.96180438,6.71727534 C0.96180438,9.03271928 2.65529343,10.9642439 4.90279708,11.4032888 C4.49050511,11.5124323 4.05649051,11.5707955 3.60846131,11.5707955 C3.29181898,11.5707955 2.98411095,11.5408897 2.68411095,11.4850825 C3.30933723,13.3837193 5.12370219,14.7653516 7.27354161,14.8040332 C5.59205255,16.0857238 3.47374599,16.849643 1.17193577,16.849643 C0.775410219,16.849643 0.384315328,16.8270646 -3.50364971e-05,16.78293 C2.17424234,18.1388314 4.7566073,18.92993 7.53105985,18.92993 C16.5677606,18.92993 21.509308,11.6480735 21.509308,5.33291659 C21.509308,5.12570583 21.5044905,4.91960269 21.4951182,4.71469238 C22.4549431,4.04091659 23.2878482,3.19920807 23.9465343,2.2408583" id="Fill-1" fill="#9B9B9B" mask="url(#mask-2)"></path>
                </g>
            </g>
        </g>
    </g>
</svg>

<svg width="24" height="19" viewBox="0 0 24 19" xmlns="http://www.w3.org/2000/svg" xmlns:xlink="http://www.w3.org/1999/xlink"><title>Twitter Copy 2</title><defs><path id="a" d="M23.947 0H0v18.93h23.947z"/></defs><g fill="none" fill-rule="evenodd"><mask id="b" fill="#fff"><use xlink:href="#a"/></mask><path d="M23.947 2.24c-.882.38-1.828.638-2.822.753A4.819 4.819 0 0 0 23.285.35c-.95.548-2 .946-3.12 1.16A4.971 4.971 0 0 0 16.58 0c-2.713 0-4.913 2.14-4.913 4.779 0 .374.044.74.127 1.089C7.71 5.668 4.09 3.766 1.667.875a4.658 4.658 0 0 0-.665 2.402c0 1.658.867 3.12 2.185 3.978a4.998 4.998 0 0 1-2.225-.598v.06c0 2.316 1.693 4.247 3.94 4.686a5.053 5.053 0 0 1-2.218.082c.625 1.899 2.44 3.28 4.59 3.319a10.035 10.035 0 0 1-6.102 2.046c-.397 0-.788-.023-1.172-.067a14.19 14.19 0 0 0 7.531 2.147c9.037 0 13.978-7.282 13.978-13.597 0-.207-.005-.413-.014-.618a9.839 9.839 0 0 0 2.452-2.474" fill="#9B9B9B" mask="url(#b)"/></g></svg>
